X:1
T:Title
%%score ( 1 2 3 ) { ( 4 7 ) | ( 5 6 ) }
L:1/8
Q:1/4=110
M:4/4
K:Ab
V:1 treble nm="Grand Piano, Staff 1"
V:2 treble 
V:3 treble 
V:4 bass nm="Choir Pad, All Hallows, 76.76 D"
V:7 bass 
V:5 bass 
V:6 bass 
V:1
 z4 A2 z2 | [DE]2 [CE]2 [EB]2 [=DA]2 | [EG]2 E2- [E-G][EA] [EG]2 | [=DF]2 E6 | %4
 E2 [EA]2 A-[EA] [DA]2 | z2 .c4 z2 | z2 G2 z4 | .G2 z2 z4 | z4 F2 z2 | D-[DB] B2- BA G2 | %10
 ED [CEA]2 A-[CEA] [DA]2 | F-[Fd] [EBd]6 | E2 [ce]2- [ce][Bd] [Ac]2 | C2 [CA]2- [CA][=EG] F2 | %14
 [Ac]2 [Ac]6 | [AB]2 [GBe]6 | [Gc]2 A6- | A2 z2 z4 |] %18
V:2
 E2 [EA]2 FE [DA]2 | x8 | z2 F2 z4 | x8 | z4 .F2 z2 | [DE]2 E2 z B [FA]2 | [EG]2 E2- [EF]2 [EA]2 | %7
 =D-[DF] E6 | E2 [EF]2 DC [DF]2 | .F2 [DE]6 | z4 .[DF]2 z2 | .A2 z2 z4 | x8 | x8 | x8 | x8 | x8 | %17
 x8 |] %18
V:3
 x8 | x8 | x8 | x8 | x8 | z4 =E2 z2 | x8 | x8 | x8 | x8 | x8 | x8 | x8 | x8 | x8 | x8 | x8 | x8 |] %18
V:4
 [G,B,]2 A,2 A,2 A,2 | G,2 A,2 B,2 B,2 | B,2 C4 B,2 | A,2 B,2 C2 D2 | B,2 A,4 A,2 | %5
 G,2 A,2 B,2 C2 | B,2 [A,C]4 [F,C]2 | z2 [E,G,B,]6 | E,2 E,2 D,C, B,2 | A,2 G,2- G,A, B,2 | %10
 E,D, C,2 D,C, B,2 | A,2 G,6 | (3z F,G,[K:treble] [CE]2- [CE][B,D] [A,C]2 | %13
 C2[K:bass] z2 z4[K:treble] | FE =D6 | B,C D6 | E2 C6- | C2 z2 z4 |] %18
V:5
 E,D, C,2 D,C, B,,2 | E,2 A,,2 G,,2 F,,2 | z8 | z2 E,6 | [D,G,]2 C,2 D,C, B,,2 | %5
 E,2 A,,2 G,,2 F,,2 | G,,2 A,,2 F,,2 z2 | B,A, E,,6 | E,,2 z2 z2 B,,2 | A,,2 G,,2- G,,A,, B,,2 | %10
 z4 z2 B,,2 | A,,2 G,,6 | (3E,,F,,G,, A,,2- A,,B,, C,2 | C,2 F,2- F,G, A,2 | F,2 [B,,F,]6 | %15
 z2 E,6 | [E,,E,]2 [A,,E,A,]6- | [A,,E,A,]2 z2 z4 |] %18
V:6
 x8 | x8 | E,,2 A,,2 F,,2 B,,2- | B,,2 G,2 A,2 B,2 | x8 | x8 | z4 z2 B,,2- | B,,2 z2 z4 | %8
 z2 E,,6- | E,,8- | E,,8- | E,,8 | x8 | x8 | x8 | x8 | x8 | x8 |] %18
V:7
 x8 | x8 | x8 | x8 | x8 | x8 | x8 | x8 | x8 | x8 | x8 | x8 | E,2[K:treble] z2 z4 | %13
 (3z[K:bass] =D,=E, C4[K:treble] C2 | x8 | x8 | x8 | x8 |] %18

